images/instagram.svg

<svg width="23" height="23" viewBox="0 0 23 23" fill="none" xmlns="http://www.w3.org/2000/svg">
<path d="M11.4519 2.94897C14.2553 2.93319 14.5879 2.94182 15.6959 2.98633C18.5421 3.09981 19.8788 4.44243 20.0242 7.26616C20.0812 8.37273 20.0927 8.70517 20.1085 11.5086C20.1242 14.313 20.1156 14.6446 20.072 15.7518C19.9575 18.5743 18.6395 19.9345 15.7921 20.0801C14.6847 20.137 14.354 20.1494 11.5488 20.1652C8.74535 20.181 8.4128 20.1723 7.30565 20.1278C4.45246 20.0135 3.12273 18.6647 2.97736 15.8471C2.92038 14.7406 2.90802 14.409 2.89223 11.6047C2.87645 8.80121 2.88596 8.46952 2.9296 7.36151C3.04408 4.5372 4.36207 3.17876 7.20943 3.03323C8.31688 2.97712 8.64844 2.96475 11.4519 2.94897ZM11.4412 1.05637C8.58966 1.07243 8.23273 1.08668 7.11304 1.14374C3.30083 1.3402 1.19353 3.46785 1.04001 7.28552C0.9947 8.40667 0.984459 8.76373 1.00051 11.6153C1.01656 14.4669 1.03083 14.8247 1.08788 15.9444C1.28434 19.7566 3.41199 21.8639 7.22966 22.0174C8.35081 22.0619 8.70787 22.0721 11.5594 22.056C14.411 22.04 14.7688 22.0257 15.8885 21.9687C19.6972 21.7722 21.8098 19.6446 21.9607 15.8269C22.006 14.7066 22.0162 14.3487 22.0002 11.4971C21.9841 8.64552 21.9699 8.2886 21.9128 7.1689C21.7199 3.36018 19.5896 1.24938 15.7719 1.09587C14.6508 1.05056 14.2928 1.04032 11.4412 1.05637V1.05637ZM11.47 6.16454C8.49242 6.1813 6.09192 8.60898 6.10868 11.5866C6.12544 14.5641 8.55312 16.9655 11.5307 16.9487C14.5083 16.932 16.9088 14.5043 16.892 11.5259C16.8752 8.54828 14.4476 6.14778 11.47 6.16454ZM11.52 15.0562C9.5872 15.067 8.01129 13.5096 8.0004 11.5759C7.98952 9.64306 9.5478 8.06714 11.4806 8.05626C13.4135 8.04538 14.9894 9.60366 15.0003 11.5365C15.0112 13.4702 13.4529 15.0453 11.52 15.0562ZM17.0669 4.66039C16.3704 4.66431 15.8092 5.23185 15.8131 5.92747C15.817 6.62308 16.3846 7.18427 17.0811 7.18035C17.7767 7.17643 18.337 6.60889 18.3331 5.91328C18.3291 5.21767 17.7625 4.65647 17.0669 4.66039Z" fill="#ABBCD5"/>
</svg>

<svg fill="none" height="23" width="23" xmlns="http://www.w3.org/2000/svg"><path d="M11.452 2.949c2.803-.016 3.136-.007 4.244.037 2.846.114 4.183 1.456 4.328 4.28.057 1.107.069 1.44.084 4.243.016 2.804.008 3.136-.036 4.243-.115 2.822-1.433 4.182-4.28 4.328-1.107.057-1.438.07-4.243.085-2.804.016-3.136.007-4.243-.037-2.854-.115-4.183-1.463-4.329-4.28-.057-1.107-.069-1.439-.085-4.243-.016-2.804-.006-3.135.038-4.243.114-2.825 1.432-4.183 4.28-4.329 1.107-.056 1.438-.068 4.242-.084zm-.01-1.893c-2.852.016-3.21.03-4.329.088-3.812.196-5.92 2.324-6.073 6.142-.045 1.12-.056 1.478-.04 4.33.017 2.85.03 3.209.088 4.328.196 3.813 2.324 5.92 6.142 6.073 1.12.045 1.478.055 4.33.039 2.851-.016 3.209-.03 4.329-.087 3.808-.197 5.92-2.324 6.072-6.142.045-1.12.055-1.478.04-4.33-.017-2.851-.031-3.208-.088-4.328-.193-3.809-2.323-5.92-6.141-6.073-1.121-.045-1.48-.056-4.33-.04zm.028 5.109a5.392 5.392 0 10.061 10.783 5.392 5.392 0 00-.061-10.783zm.05 8.891a3.5 3.5 0 11-.04-7 3.5 3.5 0 01.04 7zM17.067 4.66a1.26 1.26 0 10.013 2.521 1.26 1.26 0 00-.013-2.52z" fill="#abbcd5"/></svg>
